resources/assets/icons/thumbs-down.svg

<svg viewBox="0 0 16 16" fill="none" xmlns="http://www.w3.org/2000/svg">
<path fill-rule="evenodd" fill="none" clip-rule="evenodd" d="M12.3199 1.75877C11.9825 1.75428 11.6472 1.70499 11.3228 1.61221L8.99705 0.947889C8.65426 0.849915 8.29949 0.800158 7.94297 0.800049H4.81657C2.84448 0.800024 1.19298 2.29384 0.995772 4.25605L0.803772 7.52005C0.733745 8.89404 1.64529 10.1257 2.97977 10.4602L3.91097 10.6637C4.339 10.7699 4.63966 11.1539 4.63993 11.5949V13.76C4.63993 14.5553 5.28464 15.2 6.07993 15.2C6.87522 15.2 7.51993 14.5553 7.51993 13.76V12.7655C7.51993 10.1145 9.66897 7.96549 12.3199 7.96549V1.75877Z" stroke="currentColor" stroke-width="1.6" stroke-linecap="round" stroke-linejoin="round"/>
<path fill-rule="evenodd" fill="none" clip-rule="evenodd" d="M12.3205 0.800293H15.2005V9.44029H12.3205V0.800293Z" stroke="currentColor" stroke-width="1.6" stroke-linecap="round" stroke-linejoin="round"/>
</svg>

<svg viewBox="0 0 16 16" fill="none" xmlns="http://www.w3.org/2000/svg"><path clip-rule="evenodd" d="M12.32 1.759a3.81 3.81 0 0 1-.997-.147L8.997.948A3.84 3.84 0 0 0 7.943.8H4.817A3.84 3.84 0 0 0 .996 4.256L.804 7.52a2.88 2.88 0 0 0 2.176 2.94l.931.204a.96.96 0 0 1 .729.93v2.166a1.44 1.44 0 1 0 2.88 0v-.995a4.8 4.8 0 0 1 4.8-4.8V1.76ZM12.32.8h2.88v8.64h-2.88V.8Z" stroke="currentColor" stroke-width="1.6" stroke-linecap="round" stroke-linejoin="round"/></svg>
